X: 217
T: I Love Thee No More
B: O'Neill's 217
N: "Moderate"
Z: 1997 by John Chambers <jc@trillian.mit.edu>
N: Part B is 10 bars.
M: 3/4
L: 1/8
K:G
d>c \
| B2 G2 D2 | E2 A2 zG | F3 E D2 | G2 B2 d2 | c3 d c2 | B2 c2 d2 | e2 c2 AG | F2 z2 d>c |
| B2 G2 D2 | E2 A3 G | F3 E D2 | G2 B2 D2 | EFGABc | d2 B2 cA | G3 A F2 | G2 z2 || d2 \
| F3 G E2 | D2 z2 GF |
| ED EC AG | FE FD BA | GF GE cB | AF D2 zD | E3 F GA | d2 B2 cA | G3 A F2 | G2 z2 ||


